assets/Person standing/Medium-Light/Flat/person_standing_flat_medium-light.svg

<svg width="32" height="32" viewBox="0 0 32 32" fill="none" xmlns="http://www.w3.org/2000/svg">
<path d="M11.9301 19.74C12.0401 19.88 12.2501 19.9 12.3901 19.79C12.5301 19.68 12.5501 19.47 12.4401 19.33L12.0901 18.89C11.9801 18.75 11.7701 18.73 11.6301 18.84C11.4901 18.95 11.4701 19.16 11.5801 19.3L11.9301 19.74Z" fill="#D6A089"/>
<path d="M19.21 19.74C19.1 19.88 18.89 19.9 18.75 19.79C18.61 19.68 18.58 19.47 18.7 19.33L19.05 18.89C19.16 18.75 19.37 18.73 19.51 18.84C19.65 18.95 19.67 19.16 19.56 19.3L19.21 19.74Z" fill="#D6A089"/>
<path d="M13.96 8.98999L14.06 10.32L14.15 11.36C14.12 11.37 12.45 12.75 12.98 18.25C13 18.49 13.05 18.98 13.08 19.2C13.09 19.37 12.7 19.44 12.57 19.27C12.5351 19.2177 12.5064 19.1254 12.476 19.0281C12.4193 18.8462 12.3573 18.647 12.24 18.66C11.94 18.69 12.07 19.18 12.07 19.18C12.07 19.18 12.21 19.89 12.23 20.05C12.26 20.37 11.8 20.46 11.67 20.23C11.51 19.94 11.36 19.64 11.27 19.21C11.22 18.99 11.13 18.3 11.13 18.3C10.4989 10.6274 12.347 9.75859 13.5817 9.17819C13.7164 9.11485 13.8439 9.05494 13.96 8.98999Z" fill="#EEBFAA"/>
<path d="M17.18 8.98999L17.08 10.32L17 11.36C17.02 11.37 18.69 12.75 18.15 18.25C18.1354 18.4249 18.1049 18.738 18.0817 18.9762C18.0731 19.0648 18.0654 19.143 18.06 19.2C18.05 19.37 18.44 19.44 18.57 19.27C18.6048 19.2177 18.6336 19.1254 18.6639 19.0281C18.7206 18.8462 18.7827 18.647 18.9 18.66C19.2 18.69 19.07 19.18 19.07 19.18C19.07 19.18 18.93 19.89 18.91 20.05C18.88 20.37 19.34 20.46 19.47 20.23C19.63 19.94 19.78 19.64 19.87 19.21C19.92 18.99 20.01 18.3 20.01 18.3C20.6411 10.6274 18.793 9.75859 17.5583 9.17819C17.4236 9.11485 17.2961 9.05494 17.18 8.98999Z" fill="#EEBFAA"/>
<path d="M16.1001 30.03V28.46L17.0277 28.088L18.0501 28.46C18.0501 28.46 17.8001 28.64 18.9601 29.46C19.1801 29.61 19.0701 30.03 19.0701 30.03H16.1001Z" fill="#533566"/>
<path d="M15.0699 30.03V28.46L14.0753 28.1242L13.0599 28.46C13.0599 28.46 13.1299 28.78 12.1399 29.46C11.9199 29.61 12.0299 30.03 12.0299 30.03H15.0699Z" fill="#533566"/>
<path d="M12.59 16L13.0701 28.46H15.0801L15.3501 18.09C15.3501 17.71 15.8101 17.73 15.8101 18.09L16.1001 28.46H18.0401L18.57 15.9922L15.6585 15.1548L12.59 16Z" fill="#9B9B9B"/>
<path d="M18.5701 16H12.5901V12.65H11.2C11.2 11.5 11.83 10.45 12.59 9.68002C13.36 8.90002 14.4201 8.42004 15.5901 8.42004C16.7601 8.42004 17.8201 8.91004 18.5901 9.68004C19.3501 10.45 19.93 11.5 19.93 12.65H18.5807L18.5701 16Z" fill="#FF6723"/>
<path d="M15.5699 9.41002C15.0699 9.41002 14.6599 9.00002 14.6599 8.50002V7.90002H16.4799V8.50002C16.4799 9.00002 16.0699 9.41002 15.5699 9.41002Z" fill="#E4B29A"/>
<path d="M17.575 7.228C17.5758 7.1628 17.5766 7.09642 17.5883 7.03003L17.6283 6.29345C17.7583 6.28345 17.98 6.23345 18.08 6.16345V6.67003C18.08 7.04003 17.87 7.37003 17.53 7.52003C17.5727 7.42861 17.5738 7.32975 17.575 7.228Z" fill="#FFF9BA"/>
<path d="M13.0601 6.16592C13.1701 6.24592 13.3718 6.29592 13.5218 6.29592L13.5618 7.03003C13.5672 7.0784 13.5695 7.12604 13.5718 7.17296C13.5782 7.30067 13.5842 7.42303 13.6501 7.54003C13.2901 7.39003 13.0601 7.05003 13.0601 6.67003V6.16592Z" fill="#FFF9BA"/>
<path d="M14.19 5.67996C14.19 6.07761 13.8676 6.39996 13.47 6.39996C13.0724 6.39996 12.75 6.07761 12.75 5.67996C12.75 5.28232 13.0724 4.95996 13.47 4.95996C13.8676 4.95996 14.19 5.28232 14.19 5.67996Z" fill="#E4B29A"/>
<path d="M18.39 5.67996C18.39 6.07761 18.0676 6.39996 17.67 6.39996C17.2723 6.39996 16.95 6.07761 16.95 5.67996C16.95 5.28232 17.2723 4.95996 17.67 4.95996C18.0676 4.95996 18.39 5.28232 18.39 5.67996Z" fill="#E4B29A"/>
<path d="M16.0599 2.52002H15.0999C14.0199 2.52002 13.2099 3.42002 13.3299 4.54002L13.4899 7.02002C13.5999 7.87002 14.3199 8.50002 15.1699 8.50002H15.5799H15.9899C16.8399 8.50002 17.5599 7.87002 17.6699 7.03002L17.8199 4.55002C17.9699 3.47002 17.1399 2.52002 16.0599 2.52002Z" fill="#EEBFAA"/>
<path d="M13.9995 4.77471C14.0194 4.78877 14.0433 4.79625 14.0677 4.7961C14.0934 4.79546 14.1182 4.78671 14.1387 4.7711C14.3258 4.64149 14.5559 4.58918 14.7807 4.6251C14.8112 4.62809 14.8418 4.61946 14.8662 4.60093C14.8907 4.58239 14.9073 4.55532 14.9127 4.5251C14.9148 4.50987 14.9139 4.49436 14.91 4.47948C14.9061 4.4646 14.8993 4.45063 14.89 4.43837C14.8808 4.42611 14.8691 4.4158 14.8559 4.40803C14.8426 4.40026 14.8279 4.39519 14.8127 4.3931C14.5251 4.34867 14.2316 4.41828 13.9947 4.5871C13.9755 4.60217 13.9615 4.62286 13.9547 4.64627C13.9478 4.66969 13.9485 4.69465 13.9565 4.71768C13.9645 4.74071 13.9796 4.76065 13.9995 4.77471Z" fill="#A56953"/>
<path d="M17.0046 4.77111C17.0253 4.7876 17.0511 4.79643 17.0776 4.79611C17.095 4.79603 17.1122 4.79213 17.1279 4.78471C17.1436 4.77728 17.1575 4.76649 17.1686 4.75311C17.1878 4.72866 17.1966 4.6976 17.193 4.6667C17.1895 4.6358 17.1739 4.60756 17.1496 4.58811C16.9108 4.42255 16.6183 4.35327 16.3306 4.39411C16.3154 4.3962 16.3007 4.40127 16.2874 4.40904C16.2741 4.41681 16.2625 4.42712 16.2532 4.43938C16.2439 4.45164 16.2372 4.46561 16.2333 4.48049C16.2294 4.49537 16.2285 4.51088 16.2306 4.52611C16.2326 4.5414 16.2376 4.55616 16.2453 4.5695C16.253 4.58284 16.2633 4.59451 16.2756 4.60382C16.2879 4.61313 16.3019 4.6199 16.3169 4.62372C16.3318 4.62755 16.3473 4.62836 16.3626 4.62611C16.5873 4.59022 16.8172 4.64214 17.0046 4.77111Z" fill="#A56953"/>
<path d="M13.94 5.54997C14 5.28997 14.24 5.08997 14.53 5.08997C14.82 5.08997 15.07 5.29997 15.13 5.57997C15.14 5.63997 15.09 5.69997 15.03 5.69997H14.05C13.97 5.69997 13.91 5.62997 13.94 5.54997Z" fill="white"/>
<path d="M17.2101 5.54997C17.1501 5.28997 16.9101 5.08997 16.6201 5.08997C16.3201 5.08997 16.0801 5.29997 16.0201 5.57997C16.0101 5.63997 16.0601 5.69997 16.1201 5.69997H17.1001C17.1801 5.69997 17.2301 5.62997 17.2101 5.54997Z" fill="white"/>
<path d="M14.22 5.59995C14.22 5.37995 14.4 5.19995 14.62 5.19995C14.83 5.19995 15.01 5.37995 15.01 5.59995C15.01 5.62995 15 5.66995 14.98 5.69995H14.23C14.23 5.68603 14.2278 5.67211 14.2255 5.65718C14.2228 5.63995 14.22 5.62139 14.22 5.59995Z" fill="#7D4533"/>
<path d="M16.9199 5.59996C16.9199 5.38996 16.7499 5.20996 16.5299 5.20996C16.3199 5.20996 16.1399 5.38996 16.1399 5.60996C16.1399 5.63996 16.1399 5.67996 16.1499 5.69996H16.9099C16.9099 5.68604 16.912 5.67211 16.9144 5.65719C16.917 5.63996 16.9199 5.6214 16.9199 5.59996Z" fill="#7D4533"/>
<path d="M14.6199 5.38C14.7399 5.38 14.8399 5.48 14.8399 5.6C14.8399 5.615 14.8374 5.6325 14.8349 5.65C14.8324 5.6675 14.8299 5.685 14.8299 5.7H14.4299C14.4099 5.67 14.3999 5.64 14.3999 5.6C14.3999 5.48 14.4999 5.38 14.6199 5.38Z" fill="black"/>
<path d="M16.5301 5.38C16.4101 5.38 16.3101 5.48 16.3101 5.6C16.3101 5.615 16.3126 5.6325 16.3151 5.65C16.3176 5.6675 16.3201 5.685 16.3201 5.7H16.7201C16.7401 5.67 16.7501 5.64 16.7501 5.6C16.7501 5.48 16.6501 5.38 16.5301 5.38Z" fill="black"/>
<path d="M14.5499 5.44C14.5499 5.47866 14.5186 5.51 14.4799 5.51C14.4413 5.51 14.4099 5.47866 14.4099 5.44C14.4099 5.40134 14.4413 5.37 14.4799 5.37C14.5186 5.37 14.5499 5.40134 14.5499 5.44Z" fill="white"/>
<path d="M16.4801 5.44C16.4801 5.47866 16.4487 5.51 16.4101 5.51C16.3714 5.51 16.3401 5.47866 16.3401 5.44C16.3401 5.40134 16.3714 5.37 16.4101 5.37C16.4487 5.37 16.4801 5.40134 16.4801 5.44Z" fill="white"/>
<path d="M15.4099 5.55994L15.1799 6.29994C15.1399 6.44994 15.2499 6.59994 15.4099 6.59994H15.7499C15.9099 6.59994 16.0199 6.44994 15.9699 6.29994L15.7399 5.55994C15.6899 5.39994 15.4599 5.39994 15.4099 5.55994Z" fill="#D19479"/>
<path d="M15.5699 7.00996C15.3399 7.00996 15.1199 6.94996 14.9399 6.85996C14.8799 6.82996 14.8099 6.89996 14.8499 6.95996C14.9999 7.19996 15.2699 7.34996 15.5699 7.34996C15.8699 7.34996 16.1399 7.18996 16.2999 6.95996C16.3399 6.89996 16.2699 6.82996 16.2099 6.85996C16.0199 6.95996 15.8099 7.00996 15.5699 7.00996Z" fill="#990838"/>
<path d="M18.2499 3.41C18.1199 3.19 17.9199 3.03 17.6999 2.95C17.4499 2.87 17.2399 2.71 17.0999 2.49C16.9199 2.2 16.5999 2 16.2299 2C16.0899 2 15.9499 2.03 15.8299 2.08C15.6599 2.15 15.4699 2.15 15.3099 2.08C15.1899 2.03 15.0499 2 14.9099 2C14.5399 2 14.2299 2.19 14.0399 2.48C13.8999 2.7 13.6899 2.87 13.4399 2.96C13.1999 3.04 12.9999 3.2 12.8699 3.44C12.6899 3.79 12.7199 4.2 12.9299 4.5C13.0099 4.61 13.0499 4.74 13.0499 4.88V5.1C13.1399 5.04 13.2399 4.99 13.3499 4.98V4.97V4.62C13.3499 3.81 13.9999 3.16 14.8099 3.16H15.3699C15.4899 3.16 15.5999 3.23 15.6399 3.34C15.8099 3.72 16.1899 3.96 16.6099 3.96H17.2199C17.5499 3.97 17.8199 4.25 17.8199 4.58L17.79 4.98H17.8099H17.8199C17.9199 5 18.0099 5.04 18.0799 5.1V4.88C18.0799 4.75 18.1199 4.61 18.1999 4.5C18.4199 4.19 18.4599 3.76 18.2499 3.41Z" fill="#FFF9BA"/>
</svg>

<svg xmlns="http://www.w3.org/2000/svg" width="32" height="32" fill="none"><path fill="#D6A089" d="M11.93 19.74c.11.14.32.16.46.05a.33.33 0 0 0 .05-.46l-.35-.44a.33.33 0 0 0-.46-.05.33.33 0 0 0-.05.46l.35.44ZM19.21 19.74a.33.33 0 0 1-.46.05.322.322 0 0 1-.05-.46l.35-.44a.33.33 0 0 1 .46-.05c.14.11.16.32.05.46l-.35.44Z"/><path fill="#EEBFAA" d="m13.96 8.99.1 1.33.09 1.04c-.03.01-1.7 1.39-1.17 6.89.02.24.07.73.1.95.01.17-.38.24-.51.07-.035-.052-.064-.145-.094-.242-.057-.182-.119-.381-.236-.368-.3.03-.17.52-.17.52s.14.71.16.87c.03.32-.43.41-.56.18-.16-.29-.31-.59-.4-1.02-.05-.22-.14-.91-.14-.91-.631-7.673 1.217-8.541 2.452-9.122.134-.063.262-.123.378-.188ZM17.18 8.99l-.1 1.33-.08 1.04c.02.01 1.69 1.39 1.15 6.89-.015.175-.045.488-.068.726l-.022.224c-.01.17.38.24.51.07.035-.052.064-.145.094-.242.057-.182.119-.381.236-.368.3.03.17.52.17.52s-.14.71-.16.87c-.03.32.43.41.56.18.16-.29.31-.59.4-1.02.05-.22.14-.91.14-.91.631-7.673-1.217-8.541-2.452-9.122-.134-.063-.262-.123-.378-.188Z"/><path fill="#533566" d="M16.1 30.03v-1.57l.928-.372 1.022.372s-.25.18.91 1c.22.15.11.57.11.57H16.1ZM15.07 30.03v-1.57l-.995-.336-1.015.336s.07.32-.92 1c-.22.15-.11.57-.11.57h3.04Z"/><path fill="#9B9B9B" d="m12.59 16 .48 12.46h2.01l.27-10.37c0-.38.46-.36.46 0l.29 10.37h1.94l.53-12.468-2.912-.837L12.59 16Z"/><path fill="#FF6723" d="M18.57 16h-5.98v-3.35H11.2c0-1.15.63-2.2 1.39-2.97.77-.78 1.83-1.26 3-1.26s2.23.49 3 1.26c.76.77 1.34 1.82 1.34 2.97h-1.35L18.57 16Z"/><path fill="#E4B29A" d="M15.57 9.41c-.5 0-.91-.41-.91-.91v-.6h1.82v.6c0 .5-.41.91-.91.91Z"/><path fill="#FFF9BA" d="M17.575 7.228c0-.065.002-.132.013-.198l.04-.737c.13-.01.352-.06.452-.13v.507c0 .37-.21.7-.55.85.043-.091.044-.19.045-.292ZM13.06 6.166c.11.08.312.13.462.13l.04.734c.005.048.008.096.01.143.006.128.012.25.078.367a.943.943 0 0 1-.59-.87v-.504Z"/><path fill="#E4B29A" d="M14.19 5.68a.72.72 0 1 1-1.44 0 .72.72 0 0 1 1.44 0ZM18.39 5.68a.72.72 0 1 1-1.44 0 .72.72 0 0 1 1.44 0Z"/><path fill="#EEBFAA" d="M16.06 2.52h-.96c-1.08 0-1.89.9-1.77 2.02l.16 2.48c.11.85.83 1.48 1.68 1.48h.82c.85 0 1.57-.63 1.68-1.47l.15-2.48c.15-1.08-.68-2.03-1.76-2.03Z"/><path fill="#A56953" d="M14 4.775a.117.117 0 0 0 .139-.004.883.883 0 0 1 .642-.146.122.122 0 0 0 .132-.1.117.117 0 0 0-.1-.132 1.116 1.116 0 0 0-.818.194.117.117 0 0 0 .005.188ZM17.005 4.771a.12.12 0 0 0 .164-.018.118.118 0 0 0-.02-.165 1.153 1.153 0 0 0-.818-.194.117.117 0 0 0-.014.23c.015.004.03.004.046.002a.886.886 0 0 1 .642.145Z"/><path fill="#fff" d="M13.94 5.55c.06-.26.3-.46.59-.46s.54.21.6.49c.01.06-.04.12-.1.12h-.98c-.08 0-.14-.07-.11-.15ZM17.21 5.55a.612.612 0 0 0-1.19.03c-.01.06.04.12.1.12h.98c.08 0 .13-.07.11-.15Z"/><path fill="#7D4533" d="M14.22 5.6c0-.22.18-.4.4-.4a.4.4 0 0 1 .39.4c0 .03-.01.07-.03.1h-.75c0-.014-.002-.028-.005-.043a.356.356 0 0 1-.005-.057ZM16.92 5.6a.39.39 0 0 0-.39-.39.4.4 0 0 0-.39.4c0 .03 0 .07.01.09h.76a.27.27 0 0 1 .004-.043c.003-.017.006-.036.006-.057Z"/><path fill="#000" d="M14.62 5.38a.222.222 0 0 1 .215.27c-.003.018-.005.035-.005.05h-.4a.169.169 0 0 1-.03-.1c0-.12.1-.22.22-.22ZM16.53 5.38a.222.222 0 0 0-.215.27c.003.018.005.035.005.05h.4c.02-.03.03-.06.03-.1 0-.12-.1-.22-.22-.22Z"/><path fill="#fff" d="M14.55 5.44a.07.07 0 1 1-.14 0 .07.07 0 0 1 .14 0ZM16.48 5.44a.07.07 0 1 1-.14 0 .07.07 0 0 1 .14 0Z"/><path fill="#D19479" d="m15.41 5.56-.23.74c-.04.15.07.3.23.3h.34c.16 0 .27-.15.22-.3l-.23-.74c-.05-.16-.28-.16-.33 0Z"/><path fill="#990838" d="M15.57 7.01c-.23 0-.45-.06-.63-.15-.06-.03-.13.04-.09.1.15.24.42.39.72.39a.9.9 0 0 0 .73-.39c.04-.06-.03-.13-.09-.1-.19.1-.4.15-.64.15Z"/><path fill="#FFF9BA" d="M18.25 3.41c-.13-.22-.33-.38-.55-.46-.25-.08-.46-.24-.6-.46a1.025 1.025 0 0 0-1.27-.41.67.67 0 0 1-.52 0 1.03 1.03 0 0 0-1.27.4c-.14.22-.35.39-.6.48-.24.08-.44.24-.57.48-.18.35-.15.76.06 1.06.08.11.12.24.12.38v.22c.09-.06.19-.11.3-.12v-.36c0-.81.65-1.46 1.46-1.46h.56c.12 0 .23.07.27.18.17.38.55.62.97.62h.61c.33.01.6.29.6.62l-.03.4h.03c.1.02.19.06.26.12v-.22c0-.13.04-.27.12-.38a1 1 0 0 0 .05-1.09Z"/></svg>
